src/assets/outline/Image.svg

<svg width="24" height="24" viewBox="0 0 24 24"  xmlns="http://www.w3.org/2000/svg">
<path d="M18.3599 22.7499H5.58987C4.06987 22.7499 2.67987 21.9799 1.87987 20.6799C1.07987 19.3799 1.00987 17.7999 1.68987 16.4299L3.40987 12.9799C3.96987 11.8599 4.86987 11.1599 5.87987 11.0499C6.88987 10.9399 7.91987 11.4399 8.69987 12.4099L8.91987 12.6899C9.35987 13.2299 9.86987 13.5199 10.3699 13.4699C10.8699 13.4299 11.3299 13.0699 11.6699 12.4599L13.5599 9.04993C14.3399 7.63993 15.3799 6.90993 16.5099 6.95993C17.6299 7.01993 18.5899 7.85993 19.2299 9.33993L22.3599 16.6499C22.9399 17.9999 22.7999 19.5399 21.9899 20.7699C21.1899 22.0199 19.8299 22.7499 18.3599 22.7499ZM6.15987 12.5499C6.11987 12.5499 6.07987 12.5499 6.03987 12.5599C5.53987 12.6099 5.07987 13.0099 4.74987 13.6599L3.02987 17.1099C2.57987 17.9999 2.62987 19.0499 3.14987 19.8999C3.66987 20.7499 4.58987 21.2599 5.58987 21.2599H18.3499C19.3299 21.2599 20.1999 20.7899 20.7399 19.9699C21.2799 19.1499 21.3699 18.1699 20.9799 17.2699L17.8499 9.95993C17.4699 9.05993 16.9399 8.50993 16.4299 8.48993C15.9599 8.45993 15.3499 8.95993 14.8699 9.80993L12.9799 13.2199C12.3999 14.2599 11.4899 14.9099 10.4999 14.9999C9.50987 15.0799 8.49987 14.5999 7.74987 13.6599L7.52987 13.3799C7.10987 12.8299 6.62987 12.5499 6.15987 12.5499Z" />
<path d="M6.97021 8.75C4.91021 8.75 3.22021 7.07 3.22021 5C3.22021 2.93 4.90021 1.25 6.97021 1.25C9.04021 1.25 10.7202 2.93 10.7202 5C10.7202 7.07 9.04021 8.75 6.97021 8.75ZM6.97021 2.75C5.73021 2.75 4.72021 3.76 4.72021 5C4.72021 6.24 5.73021 7.25 6.97021 7.25C8.21021 7.25 9.22021 6.24 9.22021 5C9.22021 3.76 8.21021 2.75 6.97021 2.75Z" />
</svg>

<?xml version="1.0" encoding="UTF-8"?>
<svg width="24" height="24" viewBox="0 0 24 24" xmlns="http://www.w3.org/2000/svg">
 <path d="m18.36 22.75h-12.77c-1.52 0-2.91-0.77-3.71-2.07s-0.87-2.88-0.19-4.25l1.72-3.45c0.56-1.12 1.46-1.82 2.47-1.93s2.04 0.39 2.82 1.36l0.22 0.28c0.44 0.54 0.95 0.83 1.45 0.78 0.5-0.04 0.96-0.4 1.3-1.01l1.89-3.41c0.78-1.41 1.82-2.14 2.95-2.09 1.12 0.06 2.08 0.9 2.72 2.38l3.13 7.31c0.58 1.35 0.44 2.89-0.37 4.12-0.8 1.25-2.16 1.98-3.63 1.98zm-12.2-10.2c-0.04 0-0.08 0-0.12 0.01-0.5 0.05-0.96 0.45-1.29 1.1l-1.72 3.45c-0.45 0.89-0.4 1.94 0.12 2.79s1.44 1.36 2.44 1.36h12.76c0.98 0 1.85-0.47 2.39-1.29s0.63-1.8 0.24-2.7l-3.13-7.31c-0.38-0.9-0.91-1.45-1.42-1.47-0.47-0.03-1.08 0.47-1.56 1.32l-1.89 3.41c-0.58 1.04-1.49 1.69-2.48 1.78-0.99003 0.08-2-0.4-2.75-1.34l-0.22-0.28c-0.42-0.55-0.9-0.83-1.37-0.83z"/>
 <path d="m6.9702 8.75c-2.06 0-3.75-1.68-3.75-3.75s1.68-3.75 3.75-3.75 3.75 1.68 3.75 3.75-1.68 3.75-3.75 3.75zm0-6c-1.24 0-2.25 1.01-2.25 2.25s1.01 2.25 2.25 2.25 2.25-1.01 2.25-2.25-1.01-2.25-2.25-2.25z"/>
</svg>
